storage/app/icons/phosphoricons/thin/clipboard-thin.svg

<svg xmlns="http://www.w3.org/2000/svg" fill="currentColor" viewBox="0 0 256 256"><path d="M200 36h-38.08a44 44 0 0 0-67.84 0H56a12 12 0 0 0-12 12v168a12 12 0 0 0 12 12h144a12 12 0 0 0 12-12V48a12 12 0 0 0-12-12m-72-8a36 36 0 0 1 36 36v4H92v-4a36 36 0 0 1 36-36m76 188a4 4 0 0 1-4 4H56a4 4 0 0 1-4-4V48a4 4 0 0 1 4-4h32.83A43.7 43.7 0 0 0 84 64v8a4 4 0 0 0 4 4h80a4 4 0 0 0 4-4v-8a43.7 43.7 0 0 0-4.83-20H200a4 4 0 0 1 4 4Z"/></svg>

<svg xmlns="http://www.w3.org/2000/svg" viewBox="0 0 256 256" fill="currentColor"><path d="M200,36H161.92a44,44,0,0,0-67.84,0H56A12,12,0,0,0,44,48V216a12,12,0,0,0,12,12H200a12,12,0,0,0,12-12V48A12,12,0,0,0,200,36Zm-72-8a36,36,0,0,1,36,36v4H92V64A36,36,0,0,1,128,28Zm76,188a4,4,0,0,1-4,4H56a4,4,0,0,1-4-4V48a4,4,0,0,1,4-4H88.83A43.71,43.71,0,0,0,84,64v8a4,4,0,0,0,4,4h80a4,4,0,0,0,4-4V64a43.71,43.71,0,0,0-4.83-20H200a4,4,0,0,1,4,4Z"/></svg>
